X:199
%%pagewidth 9in
%%vocalfont Baskerville10Pro 14
T:Shackley-hay
M:6/8
L:1/8
K:Bb
%%score 1 2
V:1 clef-treble
V:2 clef-bass octave=-1
%%%%pos vol above
[V:1][DFB]|[DFB]2G [EA]2[FB]|[Gc]2B [C(A]GF)|[FB]3 [B,G]2E|[B,(F]G)[EA] [DB]2[DFB]|
w:Young Pal-mus was a Fer-ry-man,** Whom Shel-dra fair* did love, At
[V:2]B,|B,3 C2D|E3 F3|D3 E2C|D2F, B,2B,|
[V:1][DFB]2G [EA]2[FB]|[Gc]2B [C(A]GF)|[FB]3 [B,G]2E|[B,(F]G)[EA] [DB]2||[Ff]|
w:Shack-ley, where her sheep did graze,** She there his thoughts* did prove: But
[V:2]B,3 C2D|E3 F3|D3 E2C|D2F, B,2||D|
[V:1]e2c d2B & F6|[Fc]2A F2[DB]|[B,G]2E [B,F]2[_A,B,D]|[G,B,E]2F [EG]2=A|
w:he un-kind-ly stole a-way, And left his love at Shackley-*hay, So
[V:2]C2A, B,2G,|A,2z z2D|E2C D2B,|E3 [CE]3|
[V:1][D(B]A)G F2[Fd]|[E(c]B)c [DB]2!pp!B|[D(B]A)G F2[FBd]|[EA(c]B)c [DB]2||
w:loud* at Shack-ley did* she cry, The words* re-sound at Shack-*ley-hay.
[V:2][G,G]3[DB]2[B,B]|[FA]3 [B,B]2z|(G3 D2)B,|(F3 B,2)||

